dist/img/tooth.svg

<svg width="32" height="32" viewBox="0 0 32 32" fill="none" xmlns="http://www.w3.org/2000/svg">
<path d="M12.4538 1.27871C12.4136 1.27785 12.3734 1.28078 12.3338 1.28746C9.40415 1.32826 6.96225 2.26129 5.25631 3.89996C3.51173 5.57575 2.56006 7.96406 2.56006 10.72C2.56006 12.7531 3.31242 14.3372 4.14256 15.8212C4.9727 17.3052 5.87778 18.7137 6.37256 20.5112V20.5075C6.94422 22.6348 7.34944 25.0696 7.97756 27.0337C8.29162 28.0158 8.65684 28.8865 9.18381 29.5625C9.71078 30.2384 10.4686 30.72 11.3638 30.72C12.2387 30.72 13.0435 30.3906 13.5701 29.755C14.0966 29.1193 14.3363 28.2432 14.3363 27.205C14.3363 24.654 14.852 21.2744 15.3738 18.3562C15.4621 17.937 15.7286 17.8125 16.0213 17.8125C16.3149 17.8125 16.5536 17.918 16.6226 18.3337L16.6238 18.3387V18.3437C17.1459 21.2035 17.6638 24.6498 17.6638 27.205C17.6638 28.2429 17.9035 29.1193 18.4301 29.755C18.9566 30.3907 19.7614 30.72 20.6363 30.72C21.5338 30.72 22.2914 30.2328 22.8176 29.5525C23.3438 28.8721 23.7087 27.9966 24.0226 27.0112C24.6501 25.0412 25.057 22.6065 25.6276 20.5112C26.1223 18.7137 27.0274 17.3053 27.8576 15.8212C28.6873 14.3378 29.4394 12.754 29.4401 10.7225C29.4693 7.96714 28.5321 5.57724 26.7951 3.90121C25.0569 2.22414 22.5462 1.27996 19.5276 1.27996C18.2162 1.27996 17.0582 1.4566 16.0288 1.79246C14.9994 1.4566 13.8415 1.27996 12.5301 1.27996C12.5224 1.27996 12.5152 1.2812 12.5076 1.28121C12.4897 1.27962 12.4718 1.27879 12.4538 1.27871ZM19.5276 2.55996C22.2817 2.55996 24.4371 3.40481 25.9063 4.82246C27.3756 6.24011 28.1872 8.24883 28.1601 10.7125V10.72C28.1601 12.4414 27.5426 13.7615 26.7401 15.1962C25.9376 16.6309 24.9474 18.1556 24.3926 20.1712V20.1725C23.7968 22.3595 23.3861 24.7945 22.8038 26.6225C22.5127 27.5365 22.1736 28.2923 21.8051 28.7687C21.4366 29.2451 21.1091 29.44 20.6363 29.44C20.0534 29.44 19.6917 29.2712 19.4163 28.9387C19.1409 28.6062 18.9438 28.0441 18.9438 27.205C18.9438 24.4831 18.4121 21.0119 17.8851 18.1237C17.7204 17.1314 16.8501 16.5325 16.0213 16.5325C15.1925 16.5325 14.3244 17.1128 14.1201 18.0987L14.1176 18.1075L14.1163 18.1162C13.5894 21.061 13.0563 24.4801 13.0563 27.205C13.0563 28.0444 12.8591 28.6064 12.5838 28.9387C12.3085 29.2711 11.9469 29.44 11.3638 29.44C10.8888 29.44 10.5603 29.2466 10.1926 28.775C9.82483 28.3033 9.48729 27.5536 9.19631 26.6437C8.61434 24.8239 8.20387 22.3894 7.60881 20.175L7.60756 20.1737V20.1712C7.05276 18.1556 6.06256 16.6308 5.26006 15.1962C4.45756 13.7616 3.84006 12.4417 3.84006 10.72C3.84006 8.25474 4.66663 6.24264 6.14381 4.82371C7.6079 3.41735 9.7396 2.57728 12.4588 2.56246C14.7284 2.73407 16.7094 3.76279 18.1101 5.38871C18.1643 5.45425 18.2311 5.50831 18.3065 5.54773C18.3819 5.58715 18.4644 5.61115 18.5492 5.61831C18.634 5.62547 18.7194 5.61565 18.8003 5.58943C18.8813 5.56321 18.9562 5.52111 19.0206 5.4656C19.0851 5.41009 19.1379 5.34228 19.1759 5.26613C19.2138 5.18999 19.2362 5.10704 19.2418 5.02213C19.2473 4.93722 19.2359 4.85206 19.2081 4.77163C19.1803 4.6912 19.1368 4.61712 19.0801 4.55371C18.4992 3.87944 17.8257 3.29745 17.0851 2.81371C17.8053 2.64928 18.6157 2.55996 19.5276 2.55996Z" fill="white"/>
</svg>

<svg width="32" height="32" fill="none" xmlns="http://www.w3.org/2000/svg"><path d="M12.454 1.279a.64.64 0 00-.12.008c-2.93.041-5.372.974-7.078 2.613C3.512 5.576 2.56 7.964 2.56 10.72c0 2.033.752 3.617 1.583 5.101.83 1.484 1.735 2.893 2.23 4.69v-.003c.571 2.127.976 4.562 1.605 6.526.314.982.679 1.853 1.206 2.529.527.675 1.285 1.157 2.18 1.157.875 0 1.68-.33 2.206-.965.527-.636.766-1.512.766-2.55 0-2.551.516-5.93 1.038-8.849.088-.419.355-.544.647-.544.294 0 .533.106.602.522v.01c.523 2.86 1.04 6.306 1.04 8.861 0 1.038.24 1.914.767 2.55.527.636 1.331.965 2.206.965.898 0 1.655-.487 2.182-1.168.526-.68.89-1.555 1.205-2.54.627-1.97 1.034-4.405 1.605-6.5.494-1.798 1.4-3.207 2.23-4.69.83-1.484 1.581-3.068 1.582-5.1.03-2.755-.908-5.145-2.645-6.82-1.738-1.678-4.249-2.622-7.267-2.622-1.312 0-2.47.177-3.5.512C15 1.457 13.843 1.28 12.53 1.28l-.022.001a.64.64 0 00-.054-.002zm7.074 1.281c2.754 0 4.91.845 6.378 2.262 1.47 1.418 2.281 3.427 2.254 5.89v.008c0 1.721-.617 3.041-1.42 4.476-.802 1.435-1.793 2.96-2.347 4.975v.002c-.596 2.187-1.007 4.622-1.59 6.45-.29.913-.63 1.67-.998 2.146s-.696.671-1.169.671c-.583 0-.944-.169-1.22-.501-.275-.333-.472-.895-.472-1.734 0-2.722-.532-6.193-1.059-9.081a1.908 1.908 0 00-1.864-1.591c-.829 0-1.697.58-1.9 1.566l-.003.009-.002.008c-.527 2.945-1.06 6.364-1.06 9.089 0 .84-.197 1.401-.472 1.734-.275.332-.637.501-1.22.501-.475 0-.804-.193-1.171-.665-.368-.472-.706-1.221-.997-2.131-.582-1.82-.992-4.255-1.587-6.469l-.001-.001v-.003c-.555-2.015-1.545-3.54-2.348-4.975-.802-1.434-1.42-2.754-1.42-4.476 0-2.465.827-4.477 2.304-5.896 1.464-1.407 3.596-2.247 6.315-2.262 2.27.172 4.25 1.2 5.651 2.827a.64.64 0 10.97-.835 9.444 9.444 0 00-1.995-1.74c.72-.165 1.53-.254 2.443-.254z" fill="#fff"/></svg>
